tools/download-figma-icons/icons/outlined-large/enercity-e.svg

<svg width="64" height="64" viewBox="0 0 64 64" fill="none" xmlns="http://www.w3.org/2000/svg">
<path fill-rule="evenodd" clip-rule="evenodd" d="M26.3302 25.3396C27.7902 23.1006 30.1492 21.7996 33.0002 21.7996C36.2102 21.7996 38.3592 22.9896 39.4302 25.3396H26.3302ZM33.0002 18.7996C27.2202 18.7996 23.0502 22.7796 21.9792 28.3396H43.1602C42.7292 22.1596 38.8802 18.7996 33.0002 18.7996ZM26.3302 25.3396C27.7902 23.1006 30.1492 21.7996 33.0002 21.7996C36.2102 21.7996 38.3592 22.9896 39.4302 25.3396H26.3302ZM33.0002 18.7996C27.2202 18.7996 23.0502 22.7796 21.9792 28.3396H43.1602C42.7292 22.1596 38.8802 18.7996 33.0002 18.7996ZM26.3302 25.3396C27.7902 23.1006 30.1492 21.7996 33.0002 21.7996C36.2102 21.7996 38.3592 22.9896 39.4302 25.3396H26.3302ZM33.0002 18.7996C27.2202 18.7996 23.0502 22.7796 21.9792 28.3396H43.1602C42.7292 22.1596 38.8802 18.7996 33.0002 18.7996ZM26.3302 25.3396C27.7902 23.1006 30.1492 21.7996 33.0002 21.7996C36.2102 21.7996 38.3592 22.9896 39.4302 25.3396H26.3302ZM33.0002 18.7996C27.2202 18.7996 23.0502 22.7796 21.9792 28.3396H43.1602C42.7292 22.1596 38.8802 18.7996 33.0002 18.7996ZM26.3302 25.3396C27.7902 23.1006 30.1492 21.7996 33.0002 21.7996C36.2102 21.7996 38.3592 22.9896 39.4302 25.3396H26.3302ZM33.0002 18.7996C27.2202 18.7996 23.0502 22.7796 21.9792 28.3396H43.1602C42.7292 22.1596 38.8802 18.7996 33.0002 18.7996ZM41.1302 38.9096C39.0402 40.8106 35.8302 42.0606 32.7202 42.0606C30.1492 42.0606 27.7392 40.8106 26.2002 38.9096H41.1302ZM21.6402 35.9096C22.5002 41.0496 27.3402 45.0606 32.7202 45.0606C37.5502 45.0606 42.8192 42.5896 45.1802 38.6906L52.8192 44.6506C47.7602 50.7096 41.9602 53.9996 32.7202 53.9996C20.3502 53.9996 11.0002 44.7496 11.0002 31.9996C11.0002 19.3606 20.3502 9.99963 32.6092 9.99963C46.5802 9.99963 53.3502 19.9806 53.3502 31.9996C53.3502 32.8296 53.2502 34.7796 53.1402 35.9096H21.6402ZM56.1202 36.1906C56.2392 34.9596 56.3502 32.9196 56.3502 31.9996C56.3502 16.8196 47.0292 6.99963 32.6092 6.99963C18.5802 6.99963 8.00024 17.7496 8.00024 31.9996C8.00024 46.2596 18.6302 56.9996 32.7202 56.9996C42.2002 56.9996 49.1092 53.7796 55.1202 46.5696C55.6402 45.9406 55.8802 45.1406 55.8002 44.3296C55.7102 43.5206 55.3002 42.7796 54.6602 42.2796L50.3402 38.9096H53.1402C54.6802 38.9096 55.9792 37.7306 56.1202 36.1906ZM26.3302 25.3396C27.7902 23.1006 30.1492 21.7996 33.0002 21.7996C36.2102 21.7996 38.3592 22.9896 39.4302 25.3396H26.3302ZM33.0002 18.7996C27.2202 18.7996 23.0502 22.7796 21.9792 28.3396H43.1602C42.7292 22.1596 38.8802 18.7996 33.0002 18.7996ZM26.3302 25.3396C27.7902 23.1006 30.1492 21.7996 33.0002 21.7996C36.2102 21.7996 38.3592 22.9896 39.4302 25.3396H26.3302ZM33.0002 18.7996C27.2202 18.7996 23.0502 22.7796 21.9792 28.3396H43.1602C42.7292 22.1596 38.8802 18.7996 33.0002 18.7996Z" fill="black"/>
</svg>

<svg width="64" height="64" viewBox="0 0 64 64" fill="none" xmlns="http://www.w3.org/2000/svg"><path fill-rule="evenodd" clip-rule="evenodd" d="M26.33 25.34c1.46-2.24 3.82-3.54 6.67-3.54 3.21 0 5.36 1.19 6.43 3.54h-13.1ZM33 18.8c-5.78 0-9.95 3.98-11.02 9.54h21.18c-.43-6.18-4.28-9.54-10.16-9.54Zm-6.67 6.54c1.46-2.24 3.82-3.54 6.67-3.54 3.21 0 5.36 1.19 6.43 3.54h-13.1ZM33 18.8c-5.78 0-9.95 3.98-11.02 9.54h21.18c-.43-6.18-4.28-9.54-10.16-9.54Zm-6.67 6.54c1.46-2.24 3.82-3.54 6.67-3.54 3.21 0 5.36 1.19 6.43 3.54h-13.1ZM33 18.8c-5.78 0-9.95 3.98-11.02 9.54h21.18c-.43-6.18-4.28-9.54-10.16-9.54Zm-6.67 6.54c1.46-2.24 3.82-3.54 6.67-3.54 3.21 0 5.36 1.19 6.43 3.54h-13.1ZM33 18.8c-5.78 0-9.95 3.98-11.02 9.54h21.18c-.43-6.18-4.28-9.54-10.16-9.54Zm-6.67 6.54c1.46-2.24 3.82-3.54 6.67-3.54 3.21 0 5.36 1.19 6.43 3.54h-13.1ZM33 18.8c-5.78 0-9.95 3.98-11.02 9.54h21.18c-.43-6.18-4.28-9.54-10.16-9.54Zm8.13 20.11c-2.09 1.9-5.3 3.15-8.41 3.15-2.57 0-4.98-1.25-6.52-3.15h14.93Zm-19.49-3c.86 5.14 5.7 9.15 11.08 9.15 4.83 0 10.1-2.47 12.46-6.37l7.64 5.96C47.76 50.71 41.96 54 32.72 54 20.35 54 11 44.75 11 32c0-12.64 9.35-22 21.61-22 13.97 0 20.74 9.98 20.74 22 0 .83-.1 2.78-.21 3.91h-31.5Zm34.48.28c.12-1.23.23-3.27.23-4.19 0-15.18-9.32-25-23.74-25C18.58 7 8 17.75 8 32c0 14.26 10.63 25 24.72 25 9.48 0 16.39-3.22 22.4-10.43a3.03 3.03 0 0 0 .68-2.24c-.09-.81-.5-1.55-1.14-2.05l-4.32-3.37h2.8a2.997 2.997 0 0 0 2.98-2.72ZM26.33 25.34c1.46-2.24 3.82-3.54 6.67-3.54 3.21 0 5.36 1.19 6.43 3.54h-13.1ZM33 18.8c-5.78 0-9.95 3.98-11.02 9.54h21.18c-.43-6.18-4.28-9.54-10.16-9.54Zm-6.67 6.54c1.46-2.24 3.82-3.54 6.67-3.54 3.21 0 5.36 1.19 6.43 3.54h-13.1ZM33 18.8c-5.78 0-9.95 3.98-11.02 9.54h21.18c-.43-6.18-4.28-9.54-10.16-9.54Z" fill="currentColor"/></svg>
